pix_plugins/assignfeedback/editpdf/trash.svg

<!DOCTYPE svg PUBLIC "-//W3C//DTD SVG 1.1//EN" "http://www.w3.org/Graphics/SVG/1.1/DTD/svg11.dtd" [
	<!ENTITY ns_flows "http://ns.adobe.com/Flows/1.0/">
]><svg xmlns="http://www.w3.org/2000/svg" width="16" height="16" viewBox="0 0 16 16" preserveAspectRatio="xMinYMid meet" overflow="visible"><path d="M2 5v9c0 1.1.9 2 2 2h8c1.1 0 2-.9 2-2V5H2zm3 8.5c0 .3-.2.5-.5.5s-.5-.2-.5-.5v-6c0-.3.2-.5.5-.5s.5.2.5.5v6zm3.5 0c0 .3-.2.5-.5.5s-.5-.2-.5-.5v-6c0-.3.2-.5.5-.5s.5.2.5.5v6zm3.5 0c0 .3-.2.5-.5.5s-.5-.2-.5-.5v-6c0-.3.2-.5.5-.5s.5.2.5.5v6zM0 4c0-1.1.9-2 2-2h4c0-1.1.9-2 2-2s2 .9 2 2h4c1.1 0 2 .9 2 2H0z" fill="#7575E0"/></svg>

<?xml version="1.0" encoding="utf-8"?>
<!-- Generator: Adobe Illustrator 15.1.0, SVG Export Plug-In  -->
<!DOCTYPE svg PUBLIC "-//W3C//DTD SVG 1.1//EN" "http://www.w3.org/Graphics/SVG/1.1/DTD/svg11.dtd" [
	<!ENTITY ns_flows "http://ns.adobe.com/Flows/1.0/">
]>
<svg version="1.1"
	 xmlns="http://www.w3.org/2000/svg" xmlns:xlink="http://www.w3.org/1999/xlink" xmlns:a="http://ns.adobe.com/AdobeSVGViewerExtensions/3.0/"
	 x="0px" y="0px" width="16px" height="16px" viewBox="0 0 16 16" style="overflow:visible;enable-background:new 0 0 16 16;"
	 xml:space="preserve" preserveAspectRatio="xMinYMid meet">
<defs>
</defs>
<path style="fill:#999999;" d="M2,5v9c0,1.1,0.9,2,2,2h8c1.1,0,2-0.9,2-2V5H2z M5,13.5C5,13.8,4.8,14,4.5,14S4,13.8,4,13.5v-6
	C4,7.2,4.2,7,4.5,7S5,7.2,5,7.5V13.5z M8.5,13.5C8.5,13.8,8.3,14,8,14s-0.5-0.2-0.5-0.5v-6C7.5,7.2,7.7,7,8,7s0.5,0.2,0.5,0.5V13.5z
	 M12,13.5c0,0.3-0.2,0.5-0.5,0.5S11,13.8,11,13.5v-6C11,7.2,11.2,7,11.5,7S12,7.2,12,7.5V13.5z M0,4c0-1.1,0.9-2,2-2h4v0
	c0-1.1,0.9-2,2-2s2,0.9,2,2v0h4c1.1,0,2,0.9,2,2H0z"/>
</svg>
